src/images/full-logo.svg

<svg width="148" height="38" viewBox="0 0 148 38" fill="none" xmlns="http://www.w3.org/2000/svg">
<path d="M80.0504 37.733C78.9871 39.7629 95.0326 29.6136 101.412 27.6804C107.792 25.7473 117.361 31.9335 124.32 31.5468C131.183 30.9669 148.872 -1.22072 147.325 0.0358527C145.779 1.29242 133.31 14.7281 123.354 16.6613C113.398 18.5945 103.539 8.63854 99.4789 14.0515C95.4192 19.4644 81.1136 35.7032 80.0504 37.733Z" fill="url(#paint0_linear)"/>
<path d="M6.237 8.05516C7.76967 8.05516 9.01633 8.57582 9.977 9.61716C10.9377 10.6512 11.418 11.9968 11.418 13.6542C11.418 14.0208 11.3997 14.3435 11.363 14.6222H3.806C3.94533 15.3628 4.257 15.9165 4.741 16.2832C5.23233 16.6498 5.83367 16.8332 6.545 16.8332C7.535 16.8332 8.43333 16.4922 9.24 15.8102L10.923 17.6582C9.735 18.7362 8.22067 19.2752 6.38 19.2752C4.74467 19.2752 3.41367 18.7618 2.387 17.7352C1.36033 16.7085 0.847 15.3628 0.847 13.6982C0.847 12.0262 1.34567 10.6695 2.343 9.62816C3.34033 8.57949 4.63833 8.05516 6.237 8.05516ZM6.215 10.5302C5.54767 10.5302 5.01233 10.7172 4.609 11.0912C4.213 11.4578 3.949 11.9822 3.817 12.6642H8.536C8.404 11.9748 8.14 11.4468 7.744 11.0802C7.348 10.7135 6.83833 10.5302 6.215 10.5302Z" fill="#33325E"/>
<path d="M18.0321 8.05516C19.3374 8.05516 20.3824 8.52082 21.1671 9.45216V3.16016H24.0271V19.0002H21.2221V17.8232C20.4374 18.7912 19.3741 19.2752 18.0321 19.2752C16.5581 19.2752 15.3298 18.7398 14.3471 17.6692C13.3644 16.5985 12.8731 15.2638 12.8731 13.6652C12.8731 12.0665 13.3644 10.7318 14.3471 9.66116C15.3298 8.59049 16.5581 8.05516 18.0321 8.05516ZM18.5601 10.7282C17.7388 10.7282 17.0751 11.0105 16.5691 11.5752C16.0631 12.1325 15.8101 12.8292 15.8101 13.6652C15.8101 14.5012 16.0631 15.2015 16.5691 15.7662C17.0751 16.3235 17.7388 16.6022 18.5601 16.6022C19.3741 16.6022 20.0341 16.3272 20.5401 15.7772C21.0534 15.2198 21.3101 14.5158 21.3101 13.6652C21.3101 12.8145 21.0534 12.1142 20.5401 11.5642C20.0341 11.0068 19.3741 10.7282 18.5601 10.7282Z" fill="#33325E"/>
<path d="M29.4778 23.4442H26.3318L30.0608 16.7342L25.4628 8.34116H28.7188L31.6448 13.8192L34.4828 8.34116H37.6288L29.4778 23.4442Z" fill="#33325E"/>
<path d="M43.6666 8.05516C45.3239 8.05516 46.6989 8.59049 47.7916 9.66116C48.8916 10.7245 49.4416 12.0592 49.4416 13.6652C49.4416 15.2712 48.8916 16.6095 47.7916 17.6802C46.6989 18.7435 45.3239 19.2752 43.6666 19.2752C42.0166 19.2752 40.6452 18.7435 39.5526 17.6802C38.4599 16.6095 37.9136 15.2712 37.9136 13.6652C37.9136 12.0592 38.4599 10.7245 39.5526 9.66116C40.6452 8.59049 42.0166 8.05516 43.6666 8.05516ZM43.6666 10.7282C42.8526 10.7282 42.1779 11.0032 41.6426 11.5532C41.1072 12.1032 40.8396 12.8072 40.8396 13.6652C40.8396 14.5232 41.1072 15.2272 41.6426 15.7772C42.1779 16.3272 42.8526 16.6022 43.6666 16.6022C44.4879 16.6022 45.1662 16.3272 45.7016 15.7772C46.2369 15.2272 46.5046 14.5232 46.5046 13.6652C46.5046 12.8072 46.2369 12.1032 45.7016 11.5532C45.1662 11.0032 44.4879 10.7282 43.6666 10.7282Z" fill="#33325E"/>
<path d="M61.5655 14.4572C61.5655 15.2712 61.4298 15.9935 61.1585 16.6242C60.8871 17.2548 60.5131 17.7608 60.0365 18.1422C59.5671 18.5162 59.0355 18.7985 58.4415 18.9892C57.8548 19.1798 57.2168 19.2752 56.5275 19.2752C55.9848 19.2752 55.4678 19.2165 54.9765 19.0992C54.4851 18.9818 54.0231 18.7985 53.5905 18.5492C53.1651 18.2925 52.7948 17.9808 52.4795 17.6142C52.1715 17.2402 51.9258 16.7855 51.7425 16.2502C51.5665 15.7075 51.4785 15.1098 51.4785 14.4572V8.34116H54.3495V14.2042C54.3495 15.0182 54.5475 15.6232 54.9435 16.0192C55.3395 16.4078 55.8675 16.6022 56.5275 16.6022C57.1875 16.6022 57.7155 16.4078 58.1115 16.0192C58.5075 15.6232 58.7055 15.0182 58.7055 14.2042V8.34116H61.5655V14.4572Z" fill="#33325E"/>
<path d="M69.2961 8.05516C70.1907 8.05516 71.0011 8.23116 71.7271 8.58316C72.4604 8.92782 73.0727 9.42282 73.564 10.0682L71.496 11.7952C70.8287 11.0838 70.0697 10.7282 69.219 10.7282C68.4637 10.7282 67.8294 10.9995 67.316 11.5422C66.8027 12.0848 66.5461 12.7925 66.5461 13.6652C66.5461 14.5378 66.799 15.2455 67.305 15.7882C67.8184 16.3308 68.4527 16.6022 69.208 16.6022C70.088 16.6022 70.8617 16.2428 71.5291 15.5242L73.5751 17.2732C72.5264 18.6078 71.1001 19.2752 69.2961 19.2752C67.6094 19.2752 66.2417 18.7472 65.193 17.6912C64.1444 16.6352 63.62 15.2932 63.62 13.6652C63.62 12.0372 64.1444 10.6952 65.193 9.63916C66.2417 8.58316 67.6094 8.05516 69.2961 8.05516Z" fill="#33325E"/>
<path d="M85.7044 19.0002H82.8994V17.8232C82.1148 18.7912 81.0514 19.2752 79.7094 19.2752C78.2354 19.2752 77.0071 18.7398 76.0244 17.6692C75.0418 16.5985 74.5504 15.2638 74.5504 13.6652C74.5504 12.0665 75.0418 10.7318 76.0244 9.66116C77.0071 8.59049 78.2354 8.05516 79.7094 8.05516C81.0588 8.05516 82.1221 8.54282 82.8994 9.51816V8.34116H85.7044V19.0002ZM80.2374 10.7282C79.4161 10.7282 78.7524 11.0105 78.2464 11.5752C77.7404 12.1325 77.4874 12.8292 77.4874 13.6652C77.4874 14.5012 77.7404 15.2015 78.2464 15.7662C78.7524 16.3235 79.4161 16.6022 80.2374 16.6022C81.0514 16.6022 81.7114 16.3272 82.2174 15.7772C82.7308 15.2198 82.9874 14.5158 82.9874 13.6652C82.9874 12.8145 82.7308 12.1142 82.2174 11.5642C81.7114 11.0068 81.0514 10.7282 80.2374 10.7282Z" fill="#33325E"/>
<path d="M96.2371 10.8932H92.3761V14.7872C92.3761 15.4105 92.5228 15.8688 92.8161 16.1622C93.1094 16.4555 93.4944 16.6022 93.9711 16.6022C94.5431 16.6022 95.2104 16.3712 95.9731 15.9092L97.0291 18.1532C95.9511 18.9012 94.7741 19.2752 93.4981 19.2752C92.1781 19.2752 91.1808 18.9158 90.5061 18.1972C89.8388 17.4712 89.5051 16.4115 89.5051 15.0182V10.8932H87.4481V8.34116H89.5051V5.17316H92.3761V8.34116H96.2371V10.8932Z" fill="#33325E"/>
<path d="M103.155 8.05516C104.687 8.05516 105.934 8.57582 106.895 9.61716C107.855 10.6512 108.336 11.9968 108.336 13.6542C108.336 14.0208 108.317 14.3435 108.281 14.6222H100.724C100.863 15.3628 101.175 15.9165 101.659 16.2832C102.15 16.6498 102.751 16.8332 103.463 16.8332C104.453 16.8332 105.351 16.4922 106.158 15.8102L107.841 17.6582C106.653 18.7362 105.138 19.2752 103.298 19.2752C101.662 19.2752 100.331 18.7618 99.3047 17.7352C98.2781 16.7085 97.7647 15.3628 97.7647 13.6982C97.7647 12.0262 98.2634 10.6695 99.2607 9.62816C100.258 8.57949 101.556 8.05516 103.155 8.05516ZM103.133 10.5302C102.465 10.5302 101.93 10.7172 101.527 11.0912C101.131 11.4578 100.867 11.9822 100.735 12.6642H105.454C105.322 11.9748 105.058 11.4468 104.662 11.0802C104.266 10.7135 103.756 10.5302 103.133 10.5302Z" fill="#33325E"/>
<path d="M114.95 8.05516C116.255 8.05516 117.3 8.52082 118.085 9.45216V3.16016H120.945V19.0002H118.14V17.8232C117.355 18.7912 116.292 19.2752 114.95 19.2752C113.476 19.2752 112.247 18.7398 111.265 17.6692C110.282 16.5985 109.791 15.2638 109.791 13.6652C109.791 12.0665 110.282 10.7318 111.265 9.66116C112.247 8.59049 113.476 8.05516 114.95 8.05516ZM115.478 10.7282C114.656 10.7282 113.993 11.0105 113.487 11.5752C112.981 12.1325 112.728 12.8292 112.728 13.6652C112.728 14.5012 112.981 15.2015 113.487 15.7662C113.993 16.3235 114.656 16.6022 115.478 16.6022C116.292 16.6022 116.952 16.3272 117.458 15.7772C117.971 15.2198 118.228 14.5158 118.228 13.6652C118.228 12.8145 117.971 12.1142 117.458 11.5642C116.952 11.0068 116.292 10.7282 115.478 10.7282Z" fill="#33325E"/>
<defs>
<linearGradient id="paint0_linear" x1="80" y1="38" x2="151.906" y2="12.7994" gradientUnits="userSpaceOnUse">
<stop stop-color="#FECC55"/>
<stop offset="1" stop-color="#FFE5A8"/>
</linearGradient>
</defs>
</svg>

<svg fill="none" height="38" viewBox="0 0 148 38" width="148" xmlns="http://www.w3.org/2000/svg" xmlns:xlink="http://www.w3.org/1999/xlink"><linearGradient id="a" gradientUnits="userSpaceOnUse" x1="80" x2="151.906" y1="38" y2="12.7994"><stop offset="0" stop-color="#fecc55"/><stop offset="1" stop-color="#ffe5a8"/></linearGradient><path d="m80.0504 37.733c-1.0633 2.0299 14.9822-8.1194 21.3616-10.0526 6.38-1.9331 15.949 4.2531 22.908 3.8664 6.863-.5799 24.552-32.76752 23.005-31.5109473-1.546 1.2565673-14.015 14.6922473-23.971 16.6254473s-19.815-8.02276-23.8751-2.6098c-4.0597 5.4129-18.3653 21.6517-19.4285 23.6815z" fill="url(#a)"/><g fill="#33325e"><path d="m6.237 8.05516c1.53267 0 2.77933.52066 3.74 1.562.9607 1.03404 1.441 2.37964 1.441 4.03704 0 .3666-.0183.6893-.055.968h-7.557c.13933.7406.451 1.2943.935 1.661.49133.3666 1.09267.55 1.804.55.99 0 1.88833-.341 2.695-1.023l1.683 1.848c-1.188 1.078-2.70233 1.617-4.543 1.617-1.63533 0-2.96633-.5134-3.993-1.54-1.02667-1.0267-1.54-2.3724-1.54-4.037 0-1.672.49867-3.0287 1.496-4.07004.99733-1.04867 2.29533-1.573 3.894-1.573zm-.022 2.47504c-.66733 0-1.20267.187-1.606.561-.396.3666-.66.891-.792 1.573h4.719c-.132-.6894-.396-1.2174-.792-1.584-.396-.3667-.90567-.55-1.529-.55z"/><path d="m18.0321 8.05516c1.3053 0 2.3503.46566 3.135 1.397v-6.292h2.86v15.84004h-2.805v-1.177c-.7847.968-1.848 1.452-3.19 1.452-1.474 0-2.7023-.5354-3.685-1.606-.9827-1.0707-1.474-2.4054-1.474-4.004 0-1.5987.4913-2.9334 1.474-4.00404.9827-1.07067 2.211-1.606 3.685-1.606zm.528 2.67304c-.8213 0-1.485.2823-1.991.847-.506.5573-.759 1.254-.759 2.09s.253 1.5363.759 2.101c.506.5573 1.1697.836 1.991.836.814 0 1.474-.275 1.98-.825.5133-.5574.77-1.2614.77-2.112 0-.8507-.2567-1.551-.77-2.101-.506-.5574-1.166-.836-1.98-.836z"/><path d="m29.4778 23.4442h-3.146l3.729-6.71-4.598-8.39304h3.256l2.926 5.47804 2.838-5.47804h3.146z"/><path d="m43.6666 8.05516c1.6573 0 3.0323.53533 4.125 1.606 1.1 1.06334 1.65 2.39804 1.65 4.00404s-.55 2.9443-1.65 4.015c-1.0927 1.0633-2.4677 1.595-4.125 1.595-1.65 0-3.0214-.5317-4.114-1.595-1.0927-1.0707-1.639-2.409-1.639-4.015s.5463-2.9407 1.639-4.00404c1.0926-1.07067 2.464-1.606 4.114-1.606zm0 2.67304c-.814 0-1.4887.275-2.024.825-.5354.55-.803 1.254-.803 2.112s.2676 1.562.803 2.112c.5353.55 1.21.825 2.024.825.8213 0 1.4996-.275 2.035-.825.5353-.55.803-1.254.803-2.112s-.2677-1.562-.803-2.112c-.5354-.55-1.2137-.825-2.035-.825z"/><path d="m61.5655 14.4572c0 .814-.1357 1.5363-.407 2.167-.2714.6306-.6454 1.1366-1.122 1.518-.4694.374-1.001.6563-1.595.847-.5867.1906-1.2247.286-1.914.286-.5427 0-1.0597-.0587-1.551-.176-.4914-.1174-.9534-.3007-1.386-.55-.4254-.2567-.7957-.5684-1.111-.935-.308-.374-.5537-.8287-.737-1.364-.176-.5427-.264-1.1404-.264-1.793v-6.11604h2.871v5.86304c0 .814.198 1.419.594 1.815.396.3886.924.583 1.584.583s1.188-.1944 1.584-.583c.396-.396.594-1.001.594-1.815v-5.86304h2.86z"/><path d="m69.2961 8.05516c.8946 0 1.705.176 2.431.528.7333.34466 1.3456.83966 1.8369 1.48504l-2.068 1.727c-.6673-.7114-1.4263-1.067-2.277-1.067-.7553 0-1.3896.2713-1.903.814-.5133.5426-.7699 1.2503-.7699 2.123 0 .8726.2529 1.5803.7589 2.123.5134.5426 1.1477.814 1.903.814.88 0 1.6537-.3594 2.3211-1.078l2.046 1.749c-1.0487 1.3346-2.475 2.002-4.279 2.002-1.6867 0-3.0544-.528-4.1031-1.584-1.0486-1.056-1.573-2.398-1.573-4.026s.5244-2.97 1.573-4.02604c1.0487-1.056 2.4164-1.584 4.1031-1.584z"/><path d="m85.7044 19.0002h-2.805v-1.177c-.7846.968-1.848 1.452-3.19 1.452-1.474 0-2.7023-.5354-3.685-1.606-.9826-1.0707-1.474-2.4054-1.474-4.004 0-1.5987.4914-2.9334 1.474-4.00404.9827-1.07067 2.211-1.606 3.685-1.606 1.3494 0 2.4127.48766 3.19 1.463v-1.177h2.805zm-5.467-8.272c-.8213 0-1.485.2823-1.991.847-.506.5573-.759 1.254-.759 2.09s.253 1.5363.759 2.101c.506.5573 1.1697.836 1.991.836.814 0 1.474-.275 1.98-.825.5134-.5574.77-1.2614.77-2.112 0-.8507-.2566-1.551-.77-2.101-.506-.5574-1.166-.836-1.98-.836z"/><path d="m96.2371 10.8932h-3.861v3.894c0 .6233.1467 1.0816.44 1.375.2933.2933.6783.44 1.155.44.572 0 1.2393-.231 2.002-.693l1.056 2.244c-1.078.748-2.255 1.122-3.531 1.122-1.32 0-2.3173-.3594-2.992-1.078-.6673-.726-1.001-1.7857-1.001-3.179v-4.125h-2.057v-2.55204h2.057v-3.168h2.871v3.168h3.861z"/><path d="m103.155 8.05516c1.532 0 2.779.52066 3.74 1.562.96 1.03404 1.441 2.37964 1.441 4.03704 0 .3666-.019.6893-.055.968h-7.557c.139.7406.451 1.2943.935 1.661.491.3666 1.092.55 1.804.55.99 0 1.888-.341 2.695-1.023l1.683 1.848c-1.188 1.078-2.703 1.617-4.543 1.617-1.636 0-2.967-.5134-3.9933-1.54-1.0266-1.0267-1.54-2.3724-1.54-4.037 0-1.672.4987-3.0287 1.496-4.07004.9973-1.04867 2.2953-1.573 3.8943-1.573zm-.022 2.47504c-.668 0-1.203.187-1.606.561-.396.3666-.66.891-.792 1.573h4.719c-.132-.6894-.396-1.2174-.792-1.584-.396-.3667-.906-.55-1.529-.55z"/><path d="m114.95 8.05516c1.305 0 2.35.46566 3.135 1.397v-6.292h2.86v15.84004h-2.805v-1.177c-.785.968-1.848 1.452-3.19 1.452-1.474 0-2.703-.5354-3.685-1.606-.983-1.0707-1.474-2.4054-1.474-4.004 0-1.5987.491-2.9334 1.474-4.00404.982-1.07067 2.211-1.606 3.685-1.606zm.528 2.67304c-.822 0-1.485.2823-1.991.847-.506.5573-.759 1.254-.759 2.09s.253 1.5363.759 2.101c.506.5573 1.169.836 1.991.836.814 0 1.474-.275 1.98-.825.513-.5574.77-1.2614.77-2.112 0-.8507-.257-1.551-.77-2.101-.506-.5574-1.166-.836-1.98-.836z"/></g></svg>
